src/symbolic/categories/applications-games-symbolic.svg

<svg xmlns="http://www.w3.org/2000/svg" width="16" height="16" version="1.1">
 <path style="fill:#444444" d="M 12.236,1.994 C 11.995,1.9952 11.773,2.0708 11.564,2.2186 11.037,2.5949 9.9387,2.9983 8,2.9999 6.0613,2.9999 4.9627,2.5949 4.4355,2.2186 4.2272,2.0708 4.0275,1.9988 3.7852,1.9999 3.5428,2.0009 3.2634,2.0658 2.9785,2.2186 1.9411,2.7651 0.98745,4.5547 0.46875,6.8749 0.02659,8.8458 -0.13665,11.541 0.12695,12.625 0.35653,13.557 0.75324,13.969 1.459,13.969 2.5049,13.951 3.819,12.786 4.6523,11.219 5.255,10.351 6.6529,9.9562 8,9.9999 9.347,9.9529 10.745,10.351 11.348,11.219 12.181,12.786 13.495,13.951 14.541,13.969 15.247,13.969 15.643,13.557 15.873,12.625 16.137,11.541 15.973,8.8458 15.531,6.8749 15.013,4.5547 14.059,2.7651 13.021,2.2186 12.737,2.0664 12.477,1.9929 12.236,1.994 Z M 4.0332,4.9999 H 5.0254 V 5.9999 H 6.0156 V 6.9999 H 5.0254 V 7.9999 H 4.0332 V 6.9999 H 3.041 V 5.9999 H 4.0332 Z M 11.471,4.9999 C 11.745,4.9999 11.967,5.2238 11.967,5.4999 11.967,5.7761 11.745,5.9999 11.471,5.9999 11.197,5.9999 10.977,5.7761 10.977,5.4999 10.977,5.2238 11.197,4.9999 11.471,4.9999 Z M 10.48,5.9999 C 10.754,5.9999 10.977,6.2238 10.977,6.4999 10.977,6.7761 10.754,6.9999 10.48,6.9999 10.207,6.9999 9.9844,6.7761 9.9844,6.4999 9.9844,6.2238 10.207,5.9999 10.48,5.9999 Z M 12.463,5.9999 C 12.737,5.9999 12.959,6.2238 12.959,6.4999 12.959,6.7761 12.737,6.9999 12.463,6.9999 12.189,6.9999 11.967,6.7761 11.967,6.4999 11.967,6.2238 12.189,5.9999 12.463,5.9999 Z M 11.471,6.9999 C 11.745,6.9999 11.967,7.2238 11.967,7.4999 11.967,7.7761 11.745,7.9999 11.471,7.9999 11.197,7.9999 10.977,7.7761 10.977,7.4999 10.977,7.2238 11.197,6.9999 11.471,6.9999 Z"/>
</svg>

<svg xmlns="http://www.w3.org/2000/svg" width="16" height="16"><path d="M12.236 1.994a1.15 1.15 0 0 0-.672.225c-.527.376-1.625.78-3.564.78s-3.037-.404-3.564-.78a1.06 1.06 0 0 0-.65-.22 1.737 1.737 0 0 0-.808.22C1.942 2.765.988 4.555.469 6.875c-.441 1.97-.605 4.666-.341 5.75.23.932.626 1.344 1.332 1.344 1.046-.018 2.36-1.183 3.193-2.75.603-.868 2-1.263 3.348-1.22 1.347-.046 2.745.352 3.348 1.22.833 1.567 2.147 2.732 3.193 2.75.706 0 1.102-.412 1.332-1.344.264-1.084.1-3.78-.342-5.75-.518-2.32-1.472-4.11-2.51-4.656-.284-.153-.544-.226-.785-.225zM4.033 5h.992v1h.99v1h-.99v1h-.992V7h-.992V6h.992zm7.438 0c.274 0 .496.224.496.5s-.222.5-.496.5a.496.496 0 0 1-.494-.5c0-.276.22-.5.494-.5zm-.991 1c.274 0 .497.224.497.5s-.223.5-.497.5a.498.498 0 0 1-.496-.5c0-.276.223-.5.496-.5zm1.983 0c.274 0 .496.224.496.5s-.222.5-.496.5a.498.498 0 0 1-.496-.5c0-.276.222-.5.496-.5zm-.992 1c.274 0 .496.224.496.5s-.222.5-.496.5a.496.496 0 0 1-.494-.5c0-.276.22-.5.494-.5z" fill="#444"/></svg>
